Badges/Roblox-Styled/Original/link-tests.svg

<svg width="81" height="32" viewBox="0 0 81 32" fill="none" xmlns="http://www.w3.org/2000/svg">
<g filter="url(#filter0_i_24_158)">
<rect width="81" height="32" rx="4" fill="#335FFF"/>
<path d="M19.5391 9.625C19.6745 9.625 19.7917 9.67448 19.8906 9.77344C19.9896 9.8724 20.0391 9.98958 20.0391 10.125C20.0391 10.2604 19.9896 10.3776 19.8906 10.4766C19.7917 10.5755 19.6745 10.625 19.5391 10.625H18.2891V13.9844C18.2891 14.0312 18.2995 14.0755 18.3203 14.1172L22.1016 20.2266C22.2422 20.4557 22.3021 20.7031 22.2812 20.9688C22.2604 21.2292 22.1667 21.4531 22 21.6406C21.8229 21.8385 21.5964 21.9583 21.3203 22C20.6484 22.1094 19.9271 22.1953 19.1562 22.2578C18.1615 22.3359 17.1198 22.375 16.0312 22.375C14.9479 22.375 13.9089 22.3359 12.9141 22.2578C12.1432 22.1953 11.4219 22.1094 10.75 22C10.474 21.9583 10.25 21.8385 10.0781 21.6406C9.90625 21.4531 9.8099 21.2292 9.78906 20.9688C9.76823 20.7031 9.82812 20.4557 9.96875 20.2266L10.3438 19.625H14.0391C14.1745 19.625 14.2917 19.5755 14.3906 19.4766C14.4896 19.3776 14.5391 19.263 14.5391 19.1328C14.5391 18.9974 14.4948 18.8828 14.4062 18.7891C14.3177 18.6953 14.2109 18.6406 14.0859 18.625H14.0391H10.9609L11.8906 17.125H15.0391C15.1745 17.125 15.2917 17.0755 15.3906 16.9766C15.4896 16.8776 15.5391 16.763 15.5391 16.6328C15.5391 16.4974 15.4948 16.3828 15.4062 16.2891C15.3177 16.1953 15.2109 16.1406 15.0859 16.125H15.0391H12.5078L13.4297 14.625H16.0391C16.1745 14.625 16.2917 14.5755 16.3906 14.4766C16.4896 14.3776 16.5391 14.263 16.5391 14.1328C16.5391 13.9974 16.4948 13.8828 16.4062 13.7891C16.3177 13.6953 16.2109 13.6406 16.0859 13.625H16.0391H13.7891V10.625H12.5391C12.3984 10.625 12.2786 10.5781 12.1797 10.4844C12.0859 10.3854 12.0391 10.2656 12.0391 10.125C12.0391 9.98438 12.0859 9.86719 12.1797 9.77344C12.2786 9.67448 12.3984 9.625 12.5391 9.625H19.5391Z" fill="white"/>
<path d="M34.028 12.3V13.73H31.806V20H30.31V13.73H28.088V12.3H34.028ZM36.5432 20.11C34.7722 20.11 33.6172 18.911 33.6172 17.129C33.6172 15.347 34.7722 14.126 36.4222 14.126C38.2042 14.126 39.0952 15.347 39.0952 17.052V17.547H35.0362C35.1572 18.449 35.7292 18.834 36.5432 18.834C37.1372 18.834 37.5882 18.647 38.0392 18.273L38.8862 19.285C38.2702 19.857 37.3902 20.11 36.5432 20.11ZM36.4222 15.314C35.7182 15.314 35.2562 15.677 35.0802 16.403H37.6982C37.6102 15.71 37.1482 15.314 36.4222 15.314ZM42.1359 20.11C41.1459 20.11 40.3979 19.758 39.7489 19.23L40.4969 18.218C40.9699 18.625 41.5089 18.9 42.1359 18.9C42.7299 18.9 43.0489 18.702 43.0489 18.339C43.0489 17.976 42.7849 17.866 42.3449 17.778L41.6079 17.624C40.6069 17.415 40.0129 16.92 40.0129 15.974C40.0129 14.83 40.8379 14.126 42.1689 14.126C43.0049 14.126 43.7639 14.379 44.3579 14.918L43.5769 15.886C43.1479 15.534 42.6859 15.336 42.1469 15.336C41.7399 15.336 41.3769 15.49 41.3769 15.82C41.3769 16.084 41.5529 16.26 42.1139 16.381L42.9279 16.557C43.7969 16.744 44.4459 17.195 44.4459 18.152C44.4459 19.384 43.5329 20.11 42.1359 20.11ZM48.1343 18.812C48.4643 18.812 48.7173 18.768 49.0143 18.691V19.934C48.6733 20.044 48.3323 20.11 47.9143 20.11C46.6163 20.11 45.8573 19.373 45.8573 17.965V15.446H44.9113V14.236H45.8573V12.74H47.2653V14.236H48.8933V15.446H47.2653V17.943C47.2653 18.526 47.6173 18.812 48.1343 18.812ZM51.8899 20.11C50.8999 20.11 50.1519 19.758 49.5029 19.23L50.2509 18.218C50.7239 18.625 51.2629 18.9 51.8899 18.9C52.4839 18.9 52.8029 18.702 52.8029 18.339C52.8029 17.976 52.5389 17.866 52.0989 17.778L51.3619 17.624C50.3609 17.415 49.7669 16.92 49.7669 15.974C49.7669 14.83 50.5919 14.126 51.9229 14.126C52.7589 14.126 53.5179 14.379 54.1119 14.918L53.3309 15.886C52.9019 15.534 52.4399 15.336 51.9009 15.336C51.4939 15.336 51.1309 15.49 51.1309 15.82C51.1309 16.084 51.3069 16.26 51.8679 16.381L52.6819 16.557C53.5509 16.744 54.1999 17.195 54.1999 18.152C54.1999 19.384 53.2869 20.11 51.8899 20.11Z" fill="white"/>
<path d="M64.625 11.1875C64.7812 11.1875 64.9141 11.2422 65.0234 11.3516C65.1328 11.4609 65.1875 11.5938 65.1875 11.75C65.1875 11.9062 65.1328 12.0391 65.0234 12.1484C64.9141 12.2578 64.7812 12.3125 64.625 12.3125H61.0625V20.1875H68.9375V16.625C68.9375 16.4688 68.9922 16.3359 69.1016 16.2266C69.2109 16.1172 69.3438 16.0625 69.5 16.0625C69.6562 16.0625 69.7891 16.1172 69.8984 16.2266C70.0078 16.3359 70.0625 16.4688 70.0625 16.625V20.375C70.0625 20.543 70.0195 20.6992 69.9336 20.8438C69.8516 20.9883 69.7383 21.1016 69.5938 21.1836C69.4492 21.2695 69.293 21.3125 69.125 21.3125H60.875C60.707 21.3125 60.5508 21.2695 60.4062 21.1836C60.2617 21.1016 60.1465 20.9883 60.0605 20.8438C59.9785 20.6992 59.9375 20.543 59.9375 20.375V12.125C59.9375 11.957 59.9785 11.8008 60.0605 11.6562C60.1465 11.5117 60.2617 11.3984 60.4062 11.3164C60.5508 11.2305 60.707 11.1875 60.875 11.1875H64.625ZM69.5 11.1875C69.6562 11.1875 69.7891 11.2422 69.8984 11.3516C70.0078 11.4609 70.0625 11.5938 70.0625 11.75V14C70.0625 14.1562 70.0078 14.2891 69.8984 14.3984C69.7891 14.5078 69.6562 14.5625 69.5 14.5625C69.3438 14.5625 69.2109 14.5078 69.1016 14.3984C68.9922 14.2891 68.9375 14.1562 68.9375 14V13.1094L65.3984 16.6484C65.2891 16.7578 65.1562 16.8125 65 16.8125C64.8438 16.8125 64.7109 16.7578 64.6016 16.6484C64.4922 16.5391 64.4375 16.4062 64.4375 16.25C64.4375 16.0938 64.4922 15.9609 64.6016 15.8516L68.1406 12.3125H67.25C67.0938 12.3125 66.9609 12.2578 66.8516 12.1484C66.7422 12.0391 66.6875 11.9062 66.6875 11.75C66.6875 11.5938 66.7422 11.4609 66.8516 11.3516C66.9609 11.2422 67.0938 11.1875 67.25 11.1875H69.5Z" fill="white"/>
</g>
<defs>
<filter id="filter0_i_24_158" x="0" y="-2" width="81" height="34" filterUnits="userSpaceOnUse" color-interpolation-filters="sRGB">
<feFlood flood-opacity="0" result="BackgroundImageFix"/>
<feBlend mode="normal" in="SourceGraphic" in2="BackgroundImageFix" result="shape"/>
<feColorMatrix in="SourceAlpha" type="matrix" values="0 0 0 0 0 0 0 0 0 0 0 0 0 0 0 0 0 0 127 0" result="hardAlpha"/>
<feOffset dy="-2"/>
<feGaussianBlur stdDeviation="1.65"/>
<feComposite in2="hardAlpha" operator="arithmetic" k2="-1" k3="1"/>
<feColorMatrix type="matrix" values="0 0 0 0 1 0 0 0 0 1 0 0 0 0 1 0 0 0 0.11 0"/>
<feBlend mode="normal" in2="shape" result="effect1_innerShadow_24_158"/>
</filter>
</defs>
</svg>

<svg xmlns="http://www.w3.org/2000/svg" width="81" height="32" fill="none">
  <g filter="url(#a)">
    <rect width="81" height="32" fill="#335fff" rx="4"/>
    <path fill="#fff" d="M19.54 9.625a.48.48 0 0 1 .35.148.48.48 0 0 1 .15.352.48.48 0 0 1-.15.352.48.48 0 0 1-.35.148h-1.25v3.36q0 .069.03.132l3.782 6.11q.21.343.18.742-.032.39-.282.672a1.1 1.1 0 0 1-.68.359 27 27 0 0 1-2.164.258q-1.491.117-3.125.117-1.625 0-3.117-.117A27 27 0 0 1 10.75 22a1.07 1.07 0 0 1-.672-.36 1.1 1.1 0 0 1-.289-.671q-.03-.399.18-.742l.375-.602h3.695a.48.48 0 0 0 .352-.148.47.47 0 0 0 .148-.344.48.48 0 0 0-.133-.344.52.52 0 0 0-.32-.164H10.96l.93-1.5h3.148a.48.48 0 0 0 .352-.148.47.47 0 0 0 .148-.344.48.48 0 0 0-.133-.344.52.52 0 0 0-.32-.164h-2.578l.922-1.5h2.61a.48.48 0 0 0 .35-.148.47.47 0 0 0 .15-.344.48.48 0 0 0-.134-.344.52.52 0 0 0-.32-.164h-2.297v-3h-1.25a.5.5 0 0 1-.36-.14.5.5 0 0 1-.14-.36q0-.21.14-.352a.5.5 0 0 1 .36-.148zM34.028 12.3v1.43h-2.222V20H30.31v-6.27h-2.222V12.3zm2.515 7.81c-1.77 0-2.926-1.199-2.926-2.981s1.155-3.003 2.805-3.003c1.782 0 2.673 1.221 2.673 2.926v.495h-4.059c.121.902.693 1.287 1.507 1.287.594 0 1.045-.187 1.496-.561l.847 1.012c-.616.572-1.496.825-2.343.825m-.12-4.796c-.705 0-1.167.363-1.343 1.089h2.618c-.088-.693-.55-1.089-1.276-1.089m5.713 4.796c-.99 0-1.738-.352-2.387-.88l.748-1.012c.473.407 1.012.682 1.639.682.594 0 .913-.198.913-.561s-.264-.473-.704-.561l-.737-.154c-1.001-.209-1.595-.704-1.595-1.65 0-1.144.825-1.848 2.156-1.848.836 0 1.595.253 2.189.792l-.781.968c-.43-.352-.891-.55-1.43-.55-.407 0-.77.154-.77.484 0 .264.176.44.737.561l.814.176c.869.187 1.518.638 1.518 1.595 0 1.232-.913 1.958-2.31 1.958m5.998-1.298c.33 0 .583-.044.88-.121v1.243c-.34.11-.682.176-1.1.176-1.298 0-2.057-.737-2.057-2.145v-2.519h-.946v-1.21h.946V12.74h1.408v1.496h1.628v1.21h-1.628v2.497c0 .583.352.869.87.869m3.756 1.298c-.99 0-1.738-.352-2.387-.88l.748-1.012c.473.407 1.012.682 1.639.682.594 0 .913-.198.913-.561s-.264-.473-.704-.561l-.737-.154c-1.001-.209-1.595-.704-1.595-1.65 0-1.144.825-1.848 2.156-1.848.836 0 1.595.253 2.189.792l-.781.968c-.43-.352-.891-.55-1.43-.55-.407 0-.77.154-.77.484 0 .264.176.44.737.561l.814.176c.869.187 1.518.638 1.518 1.595 0 1.232-.913 1.958-2.31 1.958m12.735-8.922q.235 0 .398.164.165.164.165.398t-.165.398a.54.54 0 0 1-.398.165h-3.562v7.874h7.874v-3.562q0-.235.165-.398a.54.54 0 0 1 .398-.165q.235 0 .398.165.165.164.165.398v3.75a.9.9 0 0 1-.13.469.9.9 0 0 1-.34.34.9.9 0 0 1-.468.128h-8.25a.9.9 0 0 1-.469-.128.93.93 0 0 1-.346-.34.93.93 0 0 1-.123-.469v-8.25q0-.252.123-.469a.93.93 0 0 1 .346-.34.9.9 0 0 1 .469-.129zm4.875 0q.235 0 .398.164.165.164.165.398V14q0 .235-.165.398a.54.54 0 0 1-.398.165.54.54 0 0 1-.398-.165.54.54 0 0 1-.165-.398v-.89l-3.539 3.538a.54.54 0 0 1-.398.165.54.54 0 0 1-.398-.165.54.54 0 0 1-.165-.398q0-.235.165-.398l3.539-3.54h-.891a.54.54 0 0 1-.398-.164.54.54 0 0 1-.165-.398q0-.235.165-.398a.54.54 0 0 1 .398-.165z"/>
  </g>
  <defs>
    <filter id="a" width="81" height="34" x="0" y="-2" color-interpolation-filters="sRGB" filterUnits="userSpaceOnUse">
      <feFlood flood-opacity="0" result="BackgroundImageFix"/>
      <feBlend in="SourceGraphic" in2="BackgroundImageFix" result="shape"/>
      <feColorMatrix in="SourceAlpha" result="hardAlpha" values="0 0 0 0 0 0 0 0 0 0 0 0 0 0 0 0 0 0 127 0"/>
      <feOffset dy="-2"/>
      <feGaussianBlur stdDeviation="1.65"/>
      <feComposite in2="hardAlpha" k2="-1" k3="1" operator="arithmetic"/>
      <feColorMatrix values="0 0 0 0 1 0 0 0 0 1 0 0 0 0 1 0 0 0 0.11 0"/>
      <feBlend in2="shape" result="effect1_innerShadow_24_158"/>
    </filter>
  </defs>
</svg>
